public/formular-icons/greece/lower-nu.svg

<svg style="vertical-align:0" xmlns="http://www.w3.org/2000/svg" width="1.199ex" height="1ex" viewBox="0 -442 530 442" xmlns:xlink="http://www.w3.org/1999/xlink"><defs><path id="a" d="M74 431q1 0 72 5t73 6q12 0 12-8 0-6-46-193L137 51h3l10 4q11 4 27 12t37 19 47 33 51 46q98 99 133 229 13 48 51 48 13 0 23-8t11-23q0-21-14-59t-47-90-81-100-121-92T106 5Q81-2 71-2q-5 0-12 1t-8 2q-6 4-6 10 0 2 43 177l44 176q1 13-7 16t-39 5H65q-6 6-6 8t2 19q4 19 13 19Z"/></defs><g stroke="currentColor" fill="currentColor" stroke-width="0"><use data-c="1D708" xlink:href="#a" transform="scale(1 -1)"/></g></svg>

<svg style="vertical-align: 0" xmlns="http://www.w3.org/2000/svg" width="1.199ex" height="1ex" role="img" focusable="false" viewBox="0 -442 530 442" xmlns:xlink="http://www.w3.org/1999/xlink"><defs><path id="MJX-110-TEX-I-1D708" d="M74 431Q75 431 146 436T219 442Q231 442 231 434Q231 428 185 241L137 51H140L150 55Q161 59 177 67T214 86T261 119T312 165Q410 264 445 394Q458 442 496 442Q509 442 519 434T530 411Q530 390 516 352T469 262T388 162T267 70T106 5Q81 -2 71 -2Q66 -2 59 -1T51 1Q45 5 45 11Q45 13 88 188L132 364Q133 377 125 380T86 385H65Q59 391 59 393T61 412Q65 431 74 431Z"></path></defs><g stroke="currentColor" fill="currentColor" stroke-width="0" transform="scale(1,-1)"><g data-mml-node="math"><g data-mml-node="mi"><use data-c="1D708" xlink:href="#MJX-110-TEX-I-1D708"></use></g></g></g></svg>
